X:10
T: IST MIR ALLES EINS
N: F0043
O: Europa, Mitteleuropa, Deutschland
R: Scherz - Lied
M: 3/4
L: 1/16
K: G
d3c | B2d2d4c3A | G2B2B4
A2G2 | F2c2c4B2A2 | e4d2z2
d3c | B2d2d4c3A | G2B2B4
A2G2 | F2e2e4c2A2 | G4z4
B3G | F2c2c4A2F2 | G2e2d4
B3G | F2c2c4A2F2 | G2e2d4
d3c | B2d2d4c3A | G2B2B4
A2G2 | F2c2c4B2A2 | e4d2z2
d3c | B2d2d4c3A | G2B2B4
A2G2 | F2e2e4c2A2 | G4z4

@@@ Tune index: 5441
